X:215
T:Morag's Waltz
M:3/4
L:1/8
C:Tom Anderson
K:D
A>G|"D"F4 D2|"Em"G4 E2|"A"A3 B c2|"D"d4 F2|"G"G3 A B2|"D"A4 F2|"Em"A2 G2 F2|"A"E4 A>G|
"D"F4 D2|"Em"G4 E2|"A"A3 B c2|"Bm"d4 F2|"Em"G2 B2 e2|"A"A2 c2 e2|"D"d6|[1"D"d4:|[2"D"d4 c>d|
|:"A"e4 c2|A4 a>g|"D"f4 e2|"Bm"d4 f2|"G"g4 B2|"E"e4 d2|"A"c2 e2 c2|A4 G2|
"D"F2 A2 d2|f2 d2 F2|"G"G2 B2 e2|"A"c4 A2|"G"B G3 e>d|"A"c A3 f>e|[1"D"d6|d4 c>d:|[2"D"d2 A2 F2|D6||
